X: 3232
T: The Mullin du. or Black Mill.   a Reel.
O: Very Old.
%R: reel, air
B: Niel Gow & Sons "Complete Repository" v.3 p.23 #2
Z: 2021 John Chambers <jc:trillian.mit.edu>
M: C|
L: 1/8
K: A
% - - - - - - - - - -
V: 1 staves=2
=g |\
{f}edef {ef}=g2 Tf>e | d=GBG dGGg | {f}edef {ef}=g2 Tf>e | dB=gB A2A :| a | e<A Te>d eAAB | d<=Gd>B dGGB |
eATed eAAB | d=G d>B {B}A2 Aa || e<A Te>d eAAB | d=GdB dGGg | {f}edef =gbeg | d<B =g>B {B}A2A |]
% - - - - - - - - - -
V: 2 clef=bass middle=d
z |\
a2a2 a2a2 | =g2g2 g2g2 | a2a2 a2a2 | e2e2 A2A :| z | a2a2 a2a2 | =g2g2 g2g2 |
a2a2 a2a2 | =g2g2 a2a2 || a2a2 a2a2 | =g2g2 g2g2 | a2a2 a2a2 | e2e2 A2A |]


